X:505
T:The Maid of the Golden Tresses
M:6/8
L:1/8
B:O'Neill's 505
N:"Tenderly" "collected by F. O'Neill"
Z:Transcribed by Dave Wooldridge
K:D
A | d2 (e/2d/2) cde | f>gf e2 A | .B.A.G .F.G.A | (c>de/2c/2) A2 A |
d>ed cde | fgf e2 A | .A.F.A .G.F.E | (D3 D2)  ||
E | F (F/2G/2) (A/2B/2) .c.A.A | .B.G.G .c.A.A |  F (F/2G/2) (A/2B/2) cAc
| dec f2 E | F (F/2G/2) (A/2B/2) cAc | dgf {f}e2 d | .c.A.F {A}.G.F.E  | (D3 D2) ||


